X:156
T: ICH SCHMISS ZWO AEDDLE RUISSEN
N: E0738
O: Europa, Mitteleuropa, Deutschland; Rumaenien, Siebenbuergen
R: Liebes - Lied, Leid, Klage, Tod
M: 4/4
L: 1/8
K: A
E2 | A2A2=c2c2 | B2A2G2
G2 | A2A2B2BB | E4z2
ed | =c2BAB2cB | A4z2
E2 | A2A2=c2c2 | B2A2G2
G2 | A2A2B2BB | E4z2
ed | =c2BAB2cB | A4z2

